X:1
T:The Wyoming Nester
M:3/4
L:1/4
K:E
 B,| E2 E| G F E| G B2-| B2 B,| G3/2 F/2 E| G F E| B3-| B z B,/2B,/2|\
 E3/2 E/2 E| G F E| G B2-| B2 B,/2B,/2| G2 E| F F B,| E3-| E2||
